src/components/Footer/images/logo-5.svg

<svg width="470" height="262" viewBox="0 0 470 262" fill="none" xmlns="http://www.w3.org/2000/svg">
<path d="M346.62 171.49H299.774V179.258H346.62V171.49Z" fill="white"/>
<path d="M389.612 126.008L374.135 148.067L358.658 126.008H347.984L369.45 156.309V179.317H378.76V156.309H378.819L400.226 126.008H389.612Z" fill="white"/>
<path d="M108.951 151.625L108.24 151.091L108.892 150.439C111.382 147.889 112.865 144.45 112.865 140.832C112.865 132.649 105.334 126.008 96.0833 126.008H71V179.317H97.4472C107.231 179.317 115.237 172.261 115.237 163.603C115.237 158.978 112.924 154.649 108.951 151.625ZM80.3099 133.776H96.024C100.412 133.776 103.911 136.919 103.911 140.832C103.911 144.746 100.353 147.889 96.024 147.889H80.3099V133.776ZM97.4472 171.49H80.3099V155.657H97.4472C102.369 155.657 106.342 159.215 106.342 163.603C106.342 167.991 102.369 171.49 97.4472 171.49Z" fill="white"/>
<path d="M270.777 161.528L255.359 126.008H245.101L268.583 179.317H272.912L296.453 126.008H286.195L270.777 161.528Z" fill="white"/>
<path d="M152.358 124.94C137.059 124.94 124.665 137.393 124.665 152.692C124.665 167.991 137.118 180.384 152.417 180.384C167.716 180.384 180.11 167.932 180.11 152.633C180.11 137.334 167.716 124.94 152.358 124.94ZM152.358 171.252C142.099 171.252 133.738 162.951 133.738 152.692C133.738 142.433 142.04 134.072 152.358 134.072C162.616 134.072 170.978 142.374 170.978 152.692C170.918 162.891 162.616 171.193 152.358 171.252Z" fill="white"/>
<path d="M226.125 160.342L195.824 126.008H191.198V179.317H200.508V144.924L230.751 179.317H235.376V126.008H226.125V160.342Z" fill="white"/>
<path d="M323.197 124.94C312.939 124.94 304.577 133.242 304.577 143.56C304.577 153.878 312.879 162.18 323.197 162.18C333.515 162.18 341.817 153.878 341.817 143.56C341.758 133.242 333.456 124.94 323.197 124.94ZM323.197 154.234C317.267 154.234 312.464 149.431 312.464 143.501C312.464 137.571 317.267 132.768 323.197 132.768C329.127 132.768 333.93 137.571 333.93 143.501C333.871 149.431 329.127 154.234 323.197 154.234Z" fill="white"/>
<path d="M121.404 90.1319V108.218H116.423V81.5336H116.482H116.423H121.997L130.239 96.299L138.482 81.5336H143.997V108.218H139.075V90.1319L132.018 103.059H128.46L121.404 90.1319Z" fill="white"/>
<path d="M334.049 81.5336V86.0996H341.936V108.218H346.917V86.0996H354.803V81.5336H334.049Z" fill="white"/>
<path d="M305.289 81.5336V86.0996H313.176V108.218H318.157V86.0996H325.984V81.5336H305.289Z" fill="white"/>
<path d="M260.696 81.5336H255.715V108.218H260.696V81.5336Z" fill="white"/>
<path d="M194.46 97.4257H198.492L205.964 108.218H211.656L204.125 97.3071C208.395 96.7141 211.656 93.4527 211.656 89.4797C211.656 85.0916 207.624 81.5336 202.702 81.5336H189.479V108.218H194.46V97.4257ZM194.46 85.7438H202.702C205.015 85.7438 206.913 87.4042 206.913 89.4797C206.913 91.5551 205.015 93.2155 202.702 93.2155H194.46V85.7438Z" fill="white"/>
<path d="M167.123 90.4284L170.978 98.7895H163.209L167.123 90.4284ZM165.937 81.5336L153.603 108.218H158.94L161.312 103.118H172.994L175.366 108.218H180.703L168.309 81.5336H165.937Z" fill="white"/>
<path d="M235.435 81.5336H222.212V108.218H227.193V97.4257H231.225L238.697 108.218H244.389L236.858 97.3071C241.128 96.7141 244.389 93.4527 244.389 89.4797C244.389 85.0916 240.357 81.5336 235.435 81.5336ZM239.645 89.4797C239.645 91.5551 237.748 93.2155 235.435 93.2155H227.193V85.7438H235.435C237.748 85.7438 239.645 87.4042 239.645 89.4797Z" fill="white"/>
<path d="M284.534 80.9999C276.885 80.9999 270.659 87.2263 270.659 94.8758C270.659 102.525 276.885 108.752 284.534 108.752C292.184 108.752 298.41 102.525 298.41 94.8758C298.41 87.2263 292.243 80.9999 284.534 80.9999ZM284.534 103.771C279.613 103.771 275.64 99.7976 275.64 94.8758C275.64 89.954 279.613 85.981 284.534 85.981C289.456 85.981 293.429 89.954 293.429 94.8758C293.429 99.7976 289.456 103.771 284.534 103.771Z" fill="white"/>
<path d="M405.919 126.719H403.784V125.889H408.943V126.719H406.808V132.59H405.919V126.719Z" fill="white"/>
<path d="M410.603 132.59H409.773V125.889H411.078L412.738 131.048C412.797 131.226 412.857 131.404 412.916 131.582C412.975 131.404 413.035 131.226 413.094 131.048L414.814 125.889H416.118V132.59H415.229V126.897C415.169 127.075 415.11 127.312 415.051 127.49L413.331 132.59H412.442L410.781 127.49C410.722 127.312 410.663 127.075 410.603 126.897V132.59Z" fill="white"/>
</svg>

<svg xmlns="http://www.w3.org/2000/svg" width="470" height="262" fill="none"><path fill="#2C2C2C" d="M346.62 171.49h-46.846v7.768h46.846v-7.768ZM389.612 126.008l-15.477 22.059-15.477-22.059h-10.674l21.466 30.301v23.008h9.31v-23.008h.059l21.407-30.301h-10.614ZM108.951 151.625l-.711-.534.652-.652c2.49-2.55 3.973-5.989 3.973-9.607 0-8.183-7.531-14.824-16.782-14.824H71v53.309h26.447c9.784 0 17.79-7.056 17.79-15.714 0-4.625-2.313-8.954-6.286-11.978ZM80.31 133.776h15.714c4.388 0 7.887 3.143 7.887 7.056 0 3.914-3.558 7.057-7.887 7.057H80.31v-14.113Zm17.137 37.714H80.31v-15.833h17.137c4.922 0 8.895 3.558 8.895 7.946s-3.973 7.887-8.895 7.887ZM270.777 161.528l-15.418-35.52h-10.258l23.482 53.309h4.329l23.541-53.309h-10.258l-15.418 35.52ZM152.358 124.94c-15.299 0-27.693 12.453-27.693 27.752s12.453 27.692 27.752 27.692 27.693-12.452 27.693-27.751c0-15.299-12.394-27.693-27.752-27.693Zm0 46.312c-10.259 0-18.62-8.301-18.62-18.56 0-10.259 8.302-18.62 18.62-18.62 10.258 0 18.62 8.302 18.62 18.62-.06 10.199-8.362 18.501-18.62 18.56ZM226.125 160.342l-30.301-34.334h-4.626v53.309h9.31v-34.393l30.243 34.393h4.625v-53.309h-9.251v34.334ZM323.197 124.94c-10.258 0-18.62 8.302-18.62 18.62a18.576 18.576 0 0 0 18.62 18.62 18.576 18.576 0 0 0 18.62-18.62c-.059-10.318-8.361-18.62-18.62-18.62Zm0 29.294c-5.93 0-10.733-4.803-10.733-10.733 0-5.93 4.803-10.733 10.733-10.733 5.93 0 10.733 4.803 10.733 10.733-.059 5.93-4.803 10.733-10.733 10.733ZM121.404 90.132v18.086h-4.981V81.534h.059-.059 5.574l8.242 14.765 8.243-14.765h5.515v26.684h-4.922V90.132l-7.057 12.927h-3.558l-7.056-12.927ZM334.049 81.534V86.1h7.887v22.118h4.981V86.1h7.886v-4.566h-20.754ZM305.289 81.534V86.1h7.887v22.118h4.981V86.1h7.827v-4.566h-20.695ZM260.696 81.534h-4.981v26.684h4.981V81.534ZM194.46 97.426h4.032l7.472 10.792h5.692l-7.531-10.91c4.27-.594 7.531-3.855 7.531-7.828 0-4.388-4.032-7.946-8.954-7.946h-13.223v26.684h4.981V97.426Zm0-11.682h8.242c2.313 0 4.211 1.66 4.211 3.736 0 2.075-1.898 3.736-4.211 3.736h-8.242v-7.472ZM167.123 90.428l3.855 8.362h-7.769l3.914-8.362Zm-1.186-8.894-12.334 26.684h5.337l2.372-5.1h11.682l2.372 5.1h5.337l-12.394-26.684h-2.372ZM235.435 81.534h-13.223v26.684h4.981V97.426h4.032l7.472 10.792h5.692l-7.531-10.91c4.27-.594 7.531-3.855 7.531-7.828 0-4.388-4.032-7.946-8.954-7.946Zm4.21 7.946c0 2.075-1.897 3.736-4.21 3.736h-8.242v-7.472h8.242c2.313 0 4.21 1.66 4.21 3.736ZM284.534 81c-7.649 0-13.875 6.226-13.875 13.876 0 7.649 6.226 13.876 13.875 13.876 7.65 0 13.876-6.227 13.876-13.876 0-7.65-6.167-13.876-13.876-13.876Zm0 22.771a8.883 8.883 0 0 1-8.894-8.895 8.883 8.883 0 0 1 8.894-8.895 8.883 8.883 0 0 1 8.895 8.895 8.883 8.883 0 0 1-8.895 8.895ZM405.919 126.719h-2.135v-.83h5.159v.83h-2.135v5.871h-.889v-5.871ZM410.603 132.59h-.83v-6.701h1.305l1.66 5.159.178.534.178-.534 1.72-5.159h1.304v6.701h-.889v-5.693c-.06.178-.119.415-.178.593l-1.72 5.1h-.889l-1.661-5.1c-.059-.178-.118-.415-.178-.593v5.693Z"/></svg>
